images/3233144.svg

<?xml version="1.0" encoding="UTF-8"?>
<svg xmlns="http://www.w3.org/2000/svg" xmlns:xlink="http://www.w3.org/1999/xlink" width="300pt" height="300pt" viewBox="0 0 300 300" version="1.1">
<defs>
<g>
<symbol overflow="visible" id="glyph0-0">
<path style="stroke:none;" d="M 0.453125 1.59375 L 0.453125 -6.34375 L 4.953125 -6.34375 L 4.953125 1.59375 Z M 0.953125 1.09375 L 4.453125 1.09375 L 4.453125 -5.84375 L 0.953125 -5.84375 Z M 0.953125 1.09375 "/>
</symbol>
<symbol overflow="visible" id="glyph0-1">
<path style="stroke:none;" d="M 0.890625 -6.5625 L 2.078125 -6.5625 L 4.984375 -1.078125 L 4.984375 -6.5625 L 5.84375 -6.5625 L 5.84375 0 L 4.65625 0 L 1.75 -5.484375 L 1.75 0 L 0.890625 0 Z M 0.890625 -6.5625 "/>
</symbol>
</g>
</defs>
<g id="surface45089">
<rect x="0" y="0" width="300" height="300" style="fill:rgb(100%,100%,100%);fill-opacity:1;stroke:none;"/>
<path style="fill:none;stroke-width:1.2;stroke-linecap:butt;stroke-linejoin:miter;stroke:rgb(0%,0%,0%);stroke-opacity:1;stroke-miterlimit:10;" d="M 264.75 92.011719 L 254.265625 97.84375 "/>
<path style="fill:none;stroke-width:1.2;stroke-linecap:butt;stroke-linejoin:miter;stroke:rgb(0%,0%,100%);stroke-opacity:1;stroke-miterlimit:10;" d="M 254.265625 97.84375 L 243.78125 103.675781 "/>
<path style="fill:none;stroke-width:1.2;stroke-linecap:butt;stroke-linejoin:miter;stroke:rgb(0%,0%,100%);stroke-opacity:1;stroke-miterlimit:10;" d="M 243.78125 103.675781 L 243.589844 115.671875 "/>
<path style="fill:none;stroke-width:1.2;stroke-linecap:butt;stroke-linejoin:miter;stroke:rgb(0%,0%,0%);stroke-opacity:1;stroke-miterlimit:10;" d="M 243.589844 115.671875 L 243.398438 127.664062 "/>
<path style="fill:none;stroke-width:1.2;stroke-linecap:butt;stroke-linejoin:miter;stroke:rgb(0%,0%,0%);stroke-opacity:1;stroke-miterlimit:10;" d="M 223.195312 91.347656 L 233.488281 97.511719 "/>
<path style="fill:none;stroke-width:1.2;stroke-linecap:butt;stroke-linejoin:miter;stroke:rgb(0%,0%,100%);stroke-opacity:1;stroke-miterlimit:10;" d="M 233.488281 97.511719 L 243.78125 103.675781 "/>
<path style=" stroke:none;fill-rule:nonzero;fill:rgb(100%,100%,100%);fill-opacity:1;" d="M 240.78125 98.175781 L 247.78125 98.175781 L 247.78125 109.175781 L 240.78125 109.175781 Z M 240.78125 98.175781 "/>
<g style="fill:rgb(0%,0%,100%);fill-opacity:1;">
  <use xlink:href="#glyph0-1" x="240.78125" y="106.838867"/>
</g>
<path style="fill:none;stroke-width:1.2;stroke-linecap:butt;stroke-linejoin:miter;stroke:rgb(0%,0%,0%);stroke-opacity:1;stroke-miterlimit:10;" d="M 243.398438 127.664062 L 222.429688 139.328125 "/>
<path style="fill:none;stroke-width:1.2;stroke-linecap:butt;stroke-linejoin:miter;stroke:rgb(0%,0%,0%);stroke-opacity:1;stroke-miterlimit:10;" d="M 222.429688 139.328125 L 212.140625 133.167969 "/>
<path style="fill:none;stroke-width:1.2;stroke-linecap:butt;stroke-linejoin:miter;stroke:rgb(0%,0%,100%);stroke-opacity:1;stroke-miterlimit:10;" d="M 212.140625 133.167969 L 201.847656 127.003906 "/>
<path style="fill:none;stroke-width:1.2;stroke-linecap:butt;stroke-linejoin:miter;stroke:rgb(0%,0%,100%);stroke-opacity:1;stroke-miterlimit:10;" d="M 201.847656 127.003906 L 202.039062 115.007812 "/>
<path style="fill:none;stroke-width:1.2;stroke-linecap:butt;stroke-linejoin:miter;stroke:rgb(0%,0%,0%);stroke-opacity:1;stroke-miterlimit:10;" d="M 202.039062 115.007812 L 202.230469 103.011719 "/>
<path style="fill:none;stroke-width:1.2;stroke-linecap:butt;stroke-linejoin:miter;stroke:rgb(0%,0%,100%);stroke-opacity:1;stroke-miterlimit:10;" d="M 201.847656 127.003906 L 191.363281 132.835938 "/>
<path style="fill:none;stroke-width:1.2;stroke-linecap:butt;stroke-linejoin:miter;stroke:rgb(0%,0%,0%);stroke-opacity:1;stroke-miterlimit:10;" d="M 191.363281 132.835938 L 180.878906 138.667969 "/>
<path style=" stroke:none;fill-rule:nonzero;fill:rgb(100%,100%,100%);fill-opacity:1;" d="M 198.847656 121.503906 L 205.847656 121.503906 L 205.847656 132.503906 L 198.847656 132.503906 Z M 198.847656 121.503906 "/>
<g style="fill:rgb(0%,0%,100%);fill-opacity:1;">
  <use xlink:href="#glyph0-1" x="198.847656" y="130.166992"/>
</g>
<path style="fill:none;stroke-width:1.2;stroke-linecap:butt;stroke-linejoin:miter;stroke:rgb(0%,0%,0%);stroke-opacity:1;stroke-miterlimit:10;" d="M 202.230469 103.011719 L 223.195312 91.347656 "/>
<path style="fill:none;stroke-width:1.2;stroke-linecap:butt;stroke-linejoin:miter;stroke:rgb(0%,0%,0%);stroke-opacity:1;stroke-miterlimit:10;" d="M 180.878906 138.667969 L 170.585938 132.503906 "/>
<path style="fill:none;stroke-width:1.2;stroke-linecap:butt;stroke-linejoin:miter;stroke:rgb(0%,0%,100%);stroke-opacity:1;stroke-miterlimit:10;" d="M 170.585938 132.503906 L 160.292969 126.339844 "/>
<path style="fill:none;stroke-width:1.2;stroke-linecap:butt;stroke-linejoin:miter;stroke:rgb(0%,0%,0%);stroke-opacity:1;stroke-miterlimit:10;" d="M 175.917969 142.277344 L 167.683594 137.347656 "/>
<path style="fill:none;stroke-width:1.2;stroke-linecap:butt;stroke-linejoin:miter;stroke:rgb(0%,0%,100%);stroke-opacity:1;stroke-miterlimit:10;" d="M 167.683594 137.347656 L 159.449219 132.417969 "/>
<path style="fill:none;stroke-width:1.2;stroke-linecap:butt;stroke-linejoin:miter;stroke:rgb(0%,0%,0%);stroke-opacity:1;stroke-miterlimit:10;" d="M 180.496094 162.65625 L 180.878906 138.667969 "/>
<path style="fill:none;stroke-width:1.2;stroke-linecap:butt;stroke-linejoin:miter;stroke:rgb(0%,0%,100%);stroke-opacity:1;stroke-miterlimit:10;" d="M 160.292969 126.339844 L 149.808594 132.171875 "/>
<path style="fill:none;stroke-width:1.2;stroke-linecap:butt;stroke-linejoin:miter;stroke:rgb(0%,0%,0%);stroke-opacity:1;stroke-miterlimit:10;" d="M 149.808594 132.171875 L 139.324219 138.003906 "/>
<path style=" stroke:none;fill-rule:nonzero;fill:rgb(100%,100%,100%);fill-opacity:1;" d="M 157.292969 120.839844 L 164.292969 120.839844 L 164.292969 131.839844 L 157.292969 131.839844 Z M 157.292969 120.839844 "/>
<g style="fill:rgb(0%,0%,100%);fill-opacity:1;">
  <use xlink:href="#glyph0-1" x="157.292969" y="129.50293"/>
</g>
<path style="fill:none;stroke-width:1.2;stroke-linecap:butt;stroke-linejoin:miter;stroke:rgb(0%,0%,0%);stroke-opacity:1;stroke-miterlimit:10;" d="M 139.324219 138.003906 L 139.132812 150 "/>
<path style="fill:none;stroke-width:1.2;stroke-linecap:butt;stroke-linejoin:miter;stroke:rgb(0%,0%,100%);stroke-opacity:1;stroke-miterlimit:10;" d="M 139.132812 150 L 138.941406 161.996094 "/>
<path style="fill:none;stroke-width:1.2;stroke-linecap:butt;stroke-linejoin:miter;stroke:rgb(0%,0%,0%);stroke-opacity:1;stroke-miterlimit:10;" d="M 144.929688 140.492188 L 144.777344 150.089844 "/>
<path style="fill:none;stroke-width:1.2;stroke-linecap:butt;stroke-linejoin:miter;stroke:rgb(0%,0%,100%);stroke-opacity:1;stroke-miterlimit:10;" d="M 144.777344 150.089844 L 144.625 159.6875 "/>
<path style="fill:none;stroke-width:1.2;stroke-linecap:butt;stroke-linejoin:miter;stroke:rgb(0%,0%,0%);stroke-opacity:1;stroke-miterlimit:10;" d="M 139.324219 138.003906 L 118.738281 125.679688 "/>
<path style="fill:none;stroke-width:1.2;stroke-linecap:butt;stroke-linejoin:miter;stroke:rgb(0%,0%,100%);stroke-opacity:1;stroke-miterlimit:10;" d="M 138.941406 161.996094 L 149.234375 168.160156 "/>
<path style="fill:none;stroke-width:1.2;stroke-linecap:butt;stroke-linejoin:miter;stroke:rgb(0%,0%,0%);stroke-opacity:1;stroke-miterlimit:10;" d="M 149.234375 168.160156 L 159.527344 174.320312 "/>
<path style=" stroke:none;fill-rule:nonzero;fill:rgb(100%,100%,100%);fill-opacity:1;" d="M 135.941406 156.496094 L 142.941406 156.496094 L 142.941406 167.496094 L 135.941406 167.496094 Z M 135.941406 156.496094 "/>
<g style="fill:rgb(0%,0%,100%);fill-opacity:1;">
  <use xlink:href="#glyph0-1" x="135.941406" y="165.15918"/>
</g>
<path style="fill:none;stroke-width:1.2;stroke-linecap:butt;stroke-linejoin:miter;stroke:rgb(0%,0%,0%);stroke-opacity:1;stroke-miterlimit:10;" d="M 159.527344 174.320312 L 159.144531 198.3125 "/>
<path style="fill:none;stroke-width:1.2;stroke-linecap:butt;stroke-linejoin:miter;stroke:rgb(0%,0%,0%);stroke-opacity:1;stroke-miterlimit:10;" d="M 165.132812 176.8125 L 164.828125 196.003906 "/>
<path style="fill:none;stroke-width:1.2;stroke-linecap:butt;stroke-linejoin:miter;stroke:rgb(0%,0%,0%);stroke-opacity:1;stroke-miterlimit:10;" d="M 180.496094 162.65625 L 159.527344 174.320312 "/>
<path style="fill:none;stroke-width:1.2;stroke-linecap:butt;stroke-linejoin:miter;stroke:rgb(0%,0%,0%);stroke-opacity:1;stroke-miterlimit:10;" d="M 159.144531 198.3125 L 179.730469 210.640625 "/>
<path style="fill:none;stroke-width:1.2;stroke-linecap:butt;stroke-linejoin:miter;stroke:rgb(0%,0%,0%);stroke-opacity:1;stroke-miterlimit:10;" d="M 179.730469 210.640625 L 200.699219 198.976562 "/>
<path style="fill:none;stroke-width:1.2;stroke-linecap:butt;stroke-linejoin:miter;stroke:rgb(0%,0%,0%);stroke-opacity:1;stroke-miterlimit:10;" d="M 179.082031 204.539062 L 195.855469 195.207031 "/>
<path style="fill:none;stroke-width:1.2;stroke-linecap:butt;stroke-linejoin:miter;stroke:rgb(0%,0%,0%);stroke-opacity:1;stroke-miterlimit:10;" d="M 200.699219 198.976562 L 201.082031 174.984375 "/>
<path style="fill:none;stroke-width:1.2;stroke-linecap:butt;stroke-linejoin:miter;stroke:rgb(0%,0%,0%);stroke-opacity:1;stroke-miterlimit:10;" d="M 201.082031 174.984375 L 180.496094 162.65625 "/>
<path style="fill:none;stroke-width:1.2;stroke-linecap:butt;stroke-linejoin:miter;stroke:rgb(0%,0%,0%);stroke-opacity:1;stroke-miterlimit:10;" d="M 196.121094 178.597656 L 179.652344 168.734375 "/>
<path style="fill:none;stroke-width:1.2;stroke-linecap:butt;stroke-linejoin:miter;stroke:rgb(0%,0%,0%);stroke-opacity:1;stroke-miterlimit:10;" d="M 118.738281 125.679688 L 119.121094 101.6875 "/>
<path style="fill:none;stroke-width:1.2;stroke-linecap:butt;stroke-linejoin:miter;stroke:rgb(0%,0%,0%);stroke-opacity:1;stroke-miterlimit:10;" d="M 113.132812 123.1875 L 113.4375 103.996094 "/>
<path style="fill:none;stroke-width:1.2;stroke-linecap:butt;stroke-linejoin:miter;stroke:rgb(0%,0%,0%);stroke-opacity:1;stroke-miterlimit:10;" d="M 97.769531 137.34375 L 118.738281 125.679688 "/>
<path style="fill:none;stroke-width:1.2;stroke-linecap:butt;stroke-linejoin:miter;stroke:rgb(0%,0%,0%);stroke-opacity:1;stroke-miterlimit:10;" d="M 119.121094 101.6875 L 98.535156 89.359375 "/>
<path style="fill:none;stroke-width:1.2;stroke-linecap:butt;stroke-linejoin:miter;stroke:rgb(0%,0%,0%);stroke-opacity:1;stroke-miterlimit:10;" d="M 98.535156 89.359375 L 77.570312 101.023438 "/>
<path style="fill:none;stroke-width:1.2;stroke-linecap:butt;stroke-linejoin:miter;stroke:rgb(0%,0%,0%);stroke-opacity:1;stroke-miterlimit:10;" d="M 99.183594 95.460938 L 82.410156 104.792969 "/>
<path style="fill:none;stroke-width:1.2;stroke-linecap:butt;stroke-linejoin:miter;stroke:rgb(0%,0%,0%);stroke-opacity:1;stroke-miterlimit:10;" d="M 77.570312 101.023438 L 77.1875 125.015625 "/>
<path style="fill:none;stroke-width:1.2;stroke-linecap:butt;stroke-linejoin:miter;stroke:rgb(0%,0%,0%);stroke-opacity:1;stroke-miterlimit:10;" d="M 77.1875 125.015625 L 97.769531 137.34375 "/>
<path style="fill:none;stroke-width:1.2;stroke-linecap:butt;stroke-linejoin:miter;stroke:rgb(0%,0%,0%);stroke-opacity:1;stroke-miterlimit:10;" d="M 82.144531 121.402344 L 98.613281 131.265625 "/>
<path style="fill:none;stroke-width:1.2;stroke-linecap:butt;stroke-linejoin:miter;stroke:rgb(0%,0%,0%);stroke-opacity:1;stroke-miterlimit:10;" d="M 77.1875 125.015625 L 56.21875 136.679688 "/>
<path style="fill:none;stroke-width:1.2;stroke-linecap:butt;stroke-linejoin:miter;stroke:rgb(0%,0%,0%);stroke-opacity:1;stroke-miterlimit:10;" d="M 56.21875 136.679688 L 45.734375 142.511719 "/>
<path style="fill:none;stroke-width:1.2;stroke-linecap:butt;stroke-linejoin:miter;stroke:rgb(0%,0%,100%);stroke-opacity:1;stroke-miterlimit:10;" d="M 45.734375 142.511719 L 35.25 148.34375 "/>
<path style="fill:none;stroke-width:1.2;stroke-linecap:butt;stroke-linejoin:miter;stroke:rgb(0%,0%,0%);stroke-opacity:1;stroke-miterlimit:10;" d="M 51.375 132.910156 L 42.988281 137.578125 "/>
<path style="fill:none;stroke-width:1.2;stroke-linecap:butt;stroke-linejoin:miter;stroke:rgb(0%,0%,100%);stroke-opacity:1;stroke-miterlimit:10;" d="M 42.988281 137.578125 L 34.601562 142.242188 "/>
<path style="fill:none;stroke-width:1.2;stroke-linecap:butt;stroke-linejoin:miter;stroke:rgb(0%,0%,0%);stroke-opacity:1;stroke-miterlimit:10;" d="M 56.867188 142.78125 L 48.476562 147.445312 "/>
<path style="fill:none;stroke-width:1.2;stroke-linecap:butt;stroke-linejoin:miter;stroke:rgb(0%,0%,100%);stroke-opacity:1;stroke-miterlimit:10;" d="M 48.476562 147.445312 L 40.089844 152.109375 "/>
<path style=" stroke:none;fill-rule:nonzero;fill:rgb(100%,100%,100%);fill-opacity:1;" d="M 28.25 142.84375 L 35.25 142.84375 L 35.25 153.84375 L 28.25 153.84375 Z M 28.25 142.84375 "/>
<g style="fill:rgb(0%,0%,100%);fill-opacity:1;">
  <use xlink:href="#glyph0-1" x="28.25" y="151.506836"/>
</g>
</g>
</svg>

<svg xmlns="http://www.w3.org/2000/svg" xmlns:xlink="http://www.w3.org/1999/xlink" width="300pt" height="300pt" viewBox="0 0 300 300"><defs><symbol overflow="visible"><path d="M.453 1.594v-7.938h4.5v7.938zm.5-.5h3.5v-6.938h-3.5zm0 0"/></symbol><symbol overflow="visible" id="a"><path d="M.89-6.563H2.08l2.906 5.485v-5.484h.86V0H4.656L1.75-5.484V0H.89zm0 0"/></symbol></defs><g><path fill="#fff" d="M0 0h300v300H0z"/><path d="M264.75 92.012l-10.484 5.832" stroke-width="1.2" stroke="#000" stroke-miterlimit="10" fill="none"/><path d="M254.266 97.844l-10.485 5.832M243.78 103.676l-.19 11.996" stroke-width="1.2" stroke="#00f" stroke-miterlimit="10" fill="none"/><path d="M243.59 115.672l-.192 11.992M223.195 91.348l10.293 6.164" stroke-width="1.2" stroke="#000" stroke-miterlimit="10" fill="none"/><path d="M233.488 97.512l10.293 6.164" stroke-width="1.2" stroke="#00f" stroke-miterlimit="10" fill="none"/><path d="M240.78 98.176h7v11h-7zm0 0" fill="#fff"/><use xlink:href="#a" x="240.781" y="106.839" fill="#00f"/><path d="M243.398 127.664l-20.968 11.664M222.43 139.328l-10.29-6.16" stroke-width="1.2" stroke="#000" stroke-miterlimit="10" fill="none"/><path d="M212.14 133.168l-10.292-6.164M201.848 127.004l.19-11.996" stroke-width="1.2" stroke="#00f" stroke-miterlimit="10" fill="none"/><path d="M202.04 115.008l.19-11.996" stroke-width="1.2" stroke="#000" stroke-miterlimit="10" fill="none"/><path d="M201.848 127.004l-10.485 5.832" stroke-width="1.2" stroke="#00f" stroke-miterlimit="10" fill="none"/><path d="M191.363 132.836l-10.484 5.832" stroke-width="1.2" stroke="#000" stroke-miterlimit="10" fill="none"/><path d="M198.848 121.504h7v11h-7zm0 0" fill="#fff"/><use xlink:href="#a" x="198.848" y="130.167" fill="#00f"/><path d="M202.23 103.012l20.965-11.664M180.88 138.668l-10.294-6.164" stroke-width="1.2" stroke="#000" stroke-miterlimit="10" fill="none"/><path d="M170.586 132.504l-10.293-6.164" stroke-width="1.2" stroke="#00f" stroke-miterlimit="10" fill="none"/><path d="M175.918 142.277l-8.234-4.93" stroke-width="1.2" stroke="#000" stroke-miterlimit="10" fill="none"/><path d="M167.684 137.348l-8.235-4.93" stroke-width="1.2" stroke="#00f" stroke-miterlimit="10" fill="none"/><path d="M180.496 162.656l.383-23.988" stroke-width="1.2" stroke="#000" stroke-miterlimit="10" fill="none"/><path d="M160.293 126.34l-10.484 5.832" stroke-width="1.2" stroke="#00f" stroke-miterlimit="10" fill="none"/><path d="M149.81 132.172l-10.486 5.832" stroke-width="1.2" stroke="#000" stroke-miterlimit="10" fill="none"/><path d="M157.293 120.84h7v11h-7zm0 0" fill="#fff"/><use xlink:href="#a" x="157.293" y="129.503" fill="#00f"/><path d="M139.324 138.004l-.19 11.996" stroke-width="1.2" stroke="#000" stroke-miterlimit="10" fill="none"/><path d="M139.133 150l-.192 11.996" stroke-width="1.2" stroke="#00f" stroke-miterlimit="10" fill="none"/><path d="M144.93 140.492l-.153 9.598" stroke-width="1.2" stroke="#000" stroke-miterlimit="10" fill="none"/><path d="M144.777 150.09l-.152 9.597" stroke-width="1.2" stroke="#00f" stroke-miterlimit="10" fill="none"/><path d="M139.324 138.004l-20.586-12.324" stroke-width="1.2" stroke="#000" stroke-miterlimit="10" fill="none"/><path d="M138.94 161.996l10.294 6.164" stroke-width="1.2" stroke="#00f" stroke-miterlimit="10" fill="none"/><path d="M149.234 168.16l10.293 6.16" stroke-width="1.2" stroke="#000" stroke-miterlimit="10" fill="none"/><path d="M135.94 156.496h7v11h-7zm0 0" fill="#fff"/><use xlink:href="#a" x="135.941" y="165.159" fill="#00f"/><path d="M159.527 174.32l-.382 23.993M165.133 176.813l-.305 19.19M180.496 162.656l-20.97 11.664M159.145 198.313l20.585 12.328M179.73 210.64l20.97-11.663M179.082 204.54l16.773-9.333M200.7 198.977l.382-23.993M201.082 174.984l-20.586-12.328M196.12 178.598l-16.468-9.864M118.738 125.68l.383-23.993M113.133 123.188l.305-19.192M97.77 137.344l20.968-11.664M119.12 101.688l-20.585-12.33M98.535 89.36L77.57 101.022M99.184 95.46l-16.774 9.333M77.57 101.023l-.382 23.993M77.188 125.016l20.582 12.328M82.145 121.402l16.468 9.864M77.188 125.016l-20.97 11.664M56.22 136.68l-10.486 5.832" stroke-width="1.2" stroke="#000" stroke-miterlimit="10" fill="none"/><path d="M45.734 142.512l-10.484 5.832" stroke-width="1.2" stroke="#00f" stroke-miterlimit="10" fill="none"/><path d="M51.375 132.91l-8.387 4.668" stroke-width="1.2" stroke="#000" stroke-miterlimit="10" fill="none"/><path d="M42.988 137.578l-8.386 4.664" stroke-width="1.2" stroke="#00f" stroke-miterlimit="10" fill="none"/><path d="M56.867 142.78l-8.39 4.665" stroke-width="1.2" stroke="#000" stroke-miterlimit="10" fill="none"/><path d="M48.477 147.445l-8.387 4.664" stroke-width="1.2" stroke="#00f" stroke-miterlimit="10" fill="none"/><path d="M28.25 142.844h7v11h-7zm0 0" fill="#fff"/><use xlink:href="#a" x="28.25" y="151.507" fill="#00f"/></g></svg>
